X:1
T:Bonny Ann
M:4/4
R:Reel
K:D
|:f2ed cA (3AAA|cAeA cAAg|fded cAAB|cAGE EDD2|
f2ed cA (3AAA|cAeA cAGE|DEFG AddB|cAGE EDD2:||
|:Addc defg|abaf g2 (3ABc|d2dc dfed|cAGE EDDF|
Addc defg|abaf g2fg|afge fded|cAGE EDD2:||
